X:1
T:Nr.1 Aufblick
T:Nr.1 Aufblick
T:Sechs geistliche Lieder nach Gedichten von Joseph v. Eichendorff
T:Hugo Wolf, Wien 2. 4. 1881
C:Hugo Wolf, Wien 2. 4. 1881
%%score [ 1 2 3 4 ]
L:1/8
Q:1/4=82
M:4/4
K:E
V:1 treble nm="Soprano"
V:2 treble nm="Alto"
V:3 treble-8 nm="Tenor"
V:4 bass nm="Bass"
V:1
"^Sehr gemessen"!f! e | e2 e3/2!>(! e/!>)!!p! F2 F F | !>!c3 B A4 |!mf!!<(! A2 B3/2 c/ d2 e2!<)! | %4
w: Ver-|geht mir der Him- mel vor|Stau- be schier,|Herr, im Ge- tüm- mel|
!f! e2 f3/2 f/ !fermata!f4 |!p! A2 G3/2 A/ G F!<(! !>!c2-!<)! | %6
w: zeig' dein Pa- nier!|Wie schwank' ich sünd- lich, läßt|
!mf!!>(! c2 B3/2 B/ A2!>)!!f! !>!e2- | e2 d3/2 e/ (dc) c2 |!<(! c2 d3/2 ^e/ f2 B2!<)! | %9
w: _ du von mir: un-|* ü- ber- wind- * lich|bin ich mit dir! _|
!ff! !>!=E2 !>!G3/2 !>!B/ !>!e2 !>!e2 | !>!e2 !>!f3/2 !>!f/ !>!g2 !>!a2- | %11
w: Herr, im Ge- tüm- mel|zeig' dein Pa- nier! Un-|
"^zurückhaltend" a2 g3/2 f/ (!>!f!>!e!>!d) c |"^breit" e4 f3 g | !fermata!g8 |] %14
w: * ü- ber- wind- * * lich|bin ich mit|dir!|
V:2
!f! E | E2 E3/2!>(! E/!>)!!p! E2 E E | E2 ^E2 G2 F2 |!mf!!<(! E2 A3/2 A/ F2 =G2!<)! | %4
w: Ver-|* mir der Him- mel vor|Stau- be schier, _|Herr, im Ge- tüm- mel|
!f! B2 ^A3/2 A/ !fermata!B4 |!p! C2 ^E3/2 E/ (EF)!<(! F2!<)! |!mf!!>(! A2 G3/2 G/!>)! F4 | %7
w: zeig' dein Pa- nier!|Wie schwank' ich sünd- * lich,|läßt du von mir:|
 A2 ^A3/2 A/ (^Bc) c2 |!<(! B2 B3/2 B/ =A4!<)! |!ff! !>!=E2 !>!G3/2 !>!B/ !>!e2 !>!G2 | %10
w: un- ü- ber- wind- * lich|bin ich mit dir!|Herr, im Ge- tüm- mel|
 !>!A2 !>!F3/2 !>!B/ !>!^B4 | =B2 B3/2 A/ (!>!A!>!B!>!A) ^^F | G4 B3 B | !fermata!B8 |] %14
w: zeig' dein Pa- nier!|Un- ü- ber- wind- * * lich|bin ich mit|dir!|
V:3
!f! e | d2 =d3/2!>(! d/!>)!!p! c2 =c B | A2 G2 F4 |!mf!!<(! c2 d3/2 d/ ^B2 (c=B)!<)! | %4
w: Ver-|* mir der Him- mel vor|Stau- be schier,|Herr, im Ge- tüm- mel _|
!f! =g2 f3/2 e/ !fermata!d4 |!p! E2 B3/2 B/ B2!<(! A2!<)! |!mf!!>(! B2 c3/2 =d/!>)! c4 | %7
w: zeig' dein Pa- nier!|Wie schwank' ich sünd- lich,|läßt du von mir:|
 c2 c3/2 c/ f2 e2 |!<(! ^e2 d3/2 c/ d4!<)! |!ff! !>!=E2 !>!G3/2 !>!B/ !>!e2 !>!e2 | %10
w: un- ü- ber- wind- lich|bin ich mit dir!|Herr, im Ge- tüm- mel|
 !>!e2 !>!d3/2 !>!d/ !>!d4 | ^e2 c3/2 c/ (!>!c!>!g!>!f) =e | e4 d3 e | !fermata!e8 |] %14
w: zeig' dein Pa- nier!|Un- ü- ber- wind- * * lich|bin ich mit|dir!|
V:4
 z | z8 | z8 |!mf!!<(! F,2 F,3/2 F,/ A,2 (^A,B,)!<)! |!f! ^B,2 B,3/2 B,/ !fermata!=B,4 | %5
w: |||Herr, im Ge- tüm- mel _|zeig' dein Pa- nier!|
!p! A,,2 C,3/2 C,/ =D,2!<(! D,2!<)! |!mf!!>(! D,2 ^E,3/2 E,/!>)! F,4 | F,2 ^^F,3/2 F,/ G,2 A,2 | %8
w: Wie schwank' ich sünd- lich,|läßt du von mir:|un- ü- ber- wind- lich|
!<(! G,2 G,3/2 G,/ B,4!<)! |!ff! !>!=E,2 !>!G,3/2 !>!B,/ !>!E2 !>!D2 | %10
w: bin ich mit dir!|Herr, im Ge- tüm- mel|
 !>!C2 !>!B,3/2 !>!A,/ !>!G,4 | (C,D,) ^E,3/2 F,/ (!>!F,!>!G,!>!A,) ^A, | B,4 B,3 =E, | %13
w: zeig' dein Pa- nier!|Un- * ü- ber- wind- * * lich|bin ich mit|
 !fermata!E,8 |] %14
w: dir!|

